!!! OTL: Berkowitz39
!!! Chapter: 1
!!! Section: I
!!! Page: 12
!!! Mode: 
!!! Encoder: DJB
**kern
*staff1
*I"Piano
=1-
*clefG2
*k[b-e-a-]
*c:
*met(c|)
*M2/2
4c/
4d/
4e-/
4f/
=2
2g/
4e-/
4c/
=3
4g/
4a-/
4b-\
4a-/
=4
2g/
4r
4g/
=5
2cc\
4g/
4f/
=6
4e-/
4r
4c/
4d/
=7
4e-/
4d/
4c/
4Bn/
=8
1c
==
*-
